X: 29295
T: New Road, The
R: reel
M: 4/4
K: Dmixolydian
|:DEFA ~d3B|cAAG Ec (3ccc|DEFA dfed|cAGE EDCE|
DEFA ~d3B|cAAG Ec (3ccc|ABcA d2 ed|1 cAGE EDCE:|2 cAGE EDD2||
defg afge|cdef gefe|defg a2ge|afge fd (3efg|
afdf afdf|gece g2fe|defg afbf|af (3efg fede||
f2de fdgf|eA (3AAA g2af|gfde fage|fde^c Adde|
f2de fdgf|eA (3AAA g2fg|afge de^cA|BdAG FAEA||

